static/logo/Studiz_logo.svg

<svg width="173" height="96" viewBox="0 0 173 96" fill="none" xmlns="http://www.w3.org/2000/svg">
  <path d="M32.3661 60.6315C34.5667 60.6315 36.1457 60.2364 37.1029 59.4364C38.0601 58.6463 38.5437 57.6982 38.5437 56.5921C38.5437 55.5748 38.1687 54.7452 37.4088 54.1131C36.6588 53.481 35.5437 52.9477 34.0733 52.4934L30.8266 51.4564C28.626 50.7256 26.6819 49.9058 24.9845 49.017C23.297 48.1182 21.9845 46.9627 21.0668 45.5306C20.149 44.1084 19.6951 42.2912 19.6951 40.0987C19.6951 36.721 20.978 34.0346 23.5437 32.0298C26.1095 30.0348 29.6819 29.0373 34.2509 29.0373C36.5799 29.0373 38.6424 29.2644 40.4581 29.7088C42.2739 30.1631 43.695 30.815 44.741 31.694C45.7772 32.573 46.3002 33.6396 46.3002 34.9038C46.3002 35.842 46.0831 36.642 45.6588 37.3136C45.2344 37.9852 44.6917 38.5679 44.0403 39.0518C43.1029 38.4 41.8594 37.837 40.3101 37.3728C38.7608 36.9086 37.0437 36.6716 35.1687 36.6716C33.2937 36.6716 31.7444 36.9877 30.7674 37.6197C29.7904 38.2518 29.297 39.0715 29.297 40.0987C29.297 40.9184 29.6227 41.5801 30.274 42.0838C30.9253 42.5974 31.9023 43.0517 33.2147 43.4566L36.5799 44.4936C40.2904 45.6393 43.1423 47.1503 45.1456 49.0466C47.139 50.9428 48.1456 53.4712 48.1456 56.6513C48.1456 60.0685 46.8232 62.8536 44.1686 64.9869C41.514 67.13 37.6851 68.1967 32.672 68.1967C30.1852 68.1967 27.9648 67.93 26.001 67.4066C24.0372 66.8831 22.4878 66.1029 21.3234 65.0857C20.1589 64.0684 19.5767 62.8832 19.5767 61.5401C19.5767 60.4833 19.8924 59.5747 20.524 58.8241C21.1556 58.0735 21.8563 57.5106 22.6359 57.1451C23.7411 58.0439 25.1128 58.8438 26.7608 59.5549C28.4089 60.266 30.274 60.6216 32.3562 60.6216L32.3661 60.6315Z" fill="#22A1EE" />
  <path d="M65.0697 39.3382L65.119 44.9381H50.9086C50.6915 44.6615 50.5138 44.2763 50.3757 43.7924C50.2375 43.3085 50.1685 42.785 50.1685 42.232C50.1685 41.2246 50.3856 40.4839 50.8395 40.0295C51.2836 39.5752 51.8757 39.3382 52.6059 39.3382H65.0697ZM58.221 43.7035H65.2572V67.13C64.9513 67.2189 64.4875 67.3078 63.8756 67.3868C63.2638 67.4658 62.6322 67.5053 61.9908 67.5053C60.6092 67.5053 59.6421 67.2584 59.0697 66.7745C58.4974 66.2807 58.221 65.4313 58.221 64.2067V43.7233V43.7035ZM58.5862 44.9479L58.5368 39.3481H72.7473C72.9348 39.6246 73.1025 40.0098 73.2506 40.4937C73.4085 40.9875 73.4775 41.5011 73.4775 42.0542C73.4775 43.0319 73.2506 43.7628 72.8065 44.2368C72.3624 44.7109 71.7604 44.9479 70.9907 44.9479H58.5763H58.5862Z" fill="#22A1EE" />
  <path d="M84.6089 55.4563H77.5728V39.2394C77.9083 39.1802 78.382 39.1012 78.9938 39.0123C79.6056 38.9234 80.2175 38.874 80.8293 38.874C82.1517 38.874 83.1089 39.1012 83.701 39.5654C84.303 40.0197 84.599 40.8987 84.599 42.1826V55.4563H84.6089ZM89.622 67.9498C87.1056 67.9498 84.9543 67.4955 83.1583 66.5967C81.3622 65.6881 79.9905 64.4338 79.0234 62.8042C78.0563 61.1845 77.5728 59.2883 77.5728 57.1056V54.0736H84.6089V56.918C84.6089 58.6068 85.0727 59.9105 86.0102 60.8487C86.9477 61.787 88.1516 62.2512 89.622 62.2512C91.0924 62.2512 92.2964 61.787 93.2339 60.8487C94.1714 59.9105 94.6352 58.6068 94.6352 56.918V54.0736H101.671V57.1056C101.671 59.2784 101.198 61.1747 100.25 62.8042C99.3029 64.424 97.9213 65.6881 96.1154 66.5967C94.3095 67.4955 92.1483 67.9498 89.6319 67.9498H89.622ZM101.671 55.5452H94.6352V39.2394C94.9707 39.1802 95.4542 39.1012 96.0858 39.0123C96.7075 38.9234 97.3194 38.874 97.9016 38.874C99.224 38.874 100.181 39.1012 100.773 39.5654C101.375 40.0197 101.671 40.8987 101.671 42.1826V55.5452Z" fill="#FF6B35" />
  <path d="M131.533 61.3327C130.26 63.5055 128.484 65.135 126.195 66.2214C123.915 67.3078 121.241 67.851 118.172 67.851C117.165 67.851 115.922 67.7819 114.451 67.6436C112.981 67.5053 111.649 67.2189 110.455 66.7943C108.856 66.2116 108.066 65.1844 108.066 63.7129V41.7579C108.066 41.1456 108.234 40.6814 108.57 40.3555C108.905 40.0295 109.349 39.7629 109.902 39.5555C111.126 39.1604 112.448 38.8938 113.859 38.7753C115.27 38.6567 116.553 38.5876 117.718 38.5876C120.876 38.5876 123.629 39.1111 125.968 40.1678C128.316 41.2246 130.142 42.8245 131.464 44.9677C132.787 47.1108 133.438 49.8169 133.438 53.0959C133.438 56.3748 132.797 59.1401 131.533 61.3129V61.3327ZM125.188 48.1972C124.497 46.8837 123.55 45.8961 122.336 45.2343C121.122 44.5726 119.721 44.2467 118.132 44.2467C117.58 44.2467 117.047 44.2665 116.543 44.3159C116.04 44.3652 115.527 44.4146 115.004 44.4739V61.8759C115.468 61.9648 115.981 62.0339 116.563 62.0833C117.145 62.1327 117.698 62.1524 118.221 62.1524C120.639 62.1524 122.583 61.4018 124.033 59.9006C125.484 58.3994 126.214 56.1773 126.214 53.244C126.214 51.1897 125.869 49.5108 125.178 48.1874L125.188 48.1972Z" fill="#22A1EE" />
  <path d="M145.537 56.5624H138.55V39.2493C138.856 39.1901 139.32 39.1111 139.951 39.0222C140.583 38.9333 141.204 38.8839 141.816 38.8839C143.129 38.8839 144.086 39.1111 144.668 39.5752C145.25 40.0295 145.546 40.9085 145.546 42.1925V56.5723L145.537 56.5624ZM138.55 47.7429H145.537V67.1202C145.26 67.2091 144.816 67.298 144.204 67.377C143.593 67.456 142.961 67.4955 142.32 67.4955C140.938 67.4955 139.971 67.2486 139.398 66.7646C138.826 66.2708 138.55 65.4215 138.55 64.1968V47.7528V47.7429Z" fill="#FF6B35" />
  <path d="M152.345 59.4957L168.806 39.1999H170.918C172.082 40.1481 172.664 41.4023 172.664 42.9628C172.664 43.664 172.507 44.3455 172.201 44.9874C171.895 45.6294 171.5 46.2615 171.007 46.8738L154.635 67.1695H152.148C151.684 66.8041 151.309 66.3004 151.023 65.6486C150.737 65.0066 150.589 64.2857 150.589 63.4857C150.589 62.8141 150.757 62.1326 151.092 61.4413C151.428 60.75 151.842 60.0981 152.336 59.4858L152.345 59.4957ZM169.585 39.1999L167.01 44.9381H151.743C151.556 44.6319 151.378 44.2368 151.211 43.7628C151.043 43.2887 150.954 42.7554 150.954 42.1826C150.954 41.1752 151.181 40.4246 151.645 39.9308C152.109 39.437 152.73 39.1999 153.53 39.1999H169.576H169.585ZM153.076 67.1695L156.342 61.4314H172.21C172.398 61.7376 172.566 62.1326 172.743 62.6265C172.911 63.1203 173 63.6536 173 64.2363C173 65.2437 172.773 65.9943 172.329 66.4683C171.885 66.9424 171.263 67.1794 170.464 67.1794H153.086L153.076 67.1695Z" fill="#FF6B35" />
  <path d="M80.2077 71.8805C80.1189 71.9991 79.2603 73.1151 79.7242 72.5324C79.4182 72.9077 79.1123 73.2928 78.7965 73.6583C78.1354 74.4484 77.4347 75.2088 76.7143 75.9496C75.3229 77.3816 73.8229 78.7347 72.2439 79.9593C72.7966 79.5347 71.8887 80.2161 71.7308 80.3248C71.3361 80.6112 70.9413 80.8877 70.5367 81.1642C69.6782 81.7469 68.7999 82.2901 67.9019 82.8136C67.0532 83.2975 66.1848 83.7617 65.3065 84.1963C64.8624 84.4135 64.4183 84.6209 63.9742 84.8185C63.7473 84.9172 63.5203 85.016 63.3032 85.1148C63.6881 84.9567 63.4907 85.0357 63.2242 85.1444C61.3098 85.8851 59.3657 86.5271 57.3723 87.011C56.3953 87.248 55.4085 87.4554 54.4118 87.6233C54.1651 87.6628 53.9085 87.7023 53.6618 87.7418C53.5631 87.7616 52.7736 87.8604 53.2375 87.8011C53.6618 87.7517 53.0302 87.8208 53.0006 87.8208C52.6158 87.8604 52.2408 87.8999 51.8559 87.9394C49.8723 88.1171 47.8789 88.1566 45.8954 88.0579C44.9875 88.0184 44.0796 87.9492 43.1717 87.8505C42.9448 87.8307 42.7178 87.8011 42.5007 87.7715C42.6487 87.7912 43.3099 87.89 42.55 87.7715C42.0467 87.6925 41.5533 87.6134 41.0599 87.5246C39.2639 87.1986 37.4875 86.7542 35.7408 86.2011C34.9612 85.9542 34.1816 85.6777 33.4119 85.3913C33.254 85.332 32.129 84.8876 32.5139 85.0456C32.9876 85.2333 32.3461 84.9765 32.2376 84.9271C31.9909 84.8185 31.7442 84.7098 31.4974 84.5913C29.879 83.8407 28.3001 82.9913 26.7804 82.0432C26.0896 81.6185 25.4185 81.1741 24.7573 80.7099C24.4021 80.463 24.0567 80.2062 23.7113 79.9495C23.1192 79.5149 23.6324 79.8902 23.7409 79.9791C23.5238 79.8112 23.3166 79.6433 23.1093 79.4754C21.7278 78.3594 20.4251 77.1644 19.1916 75.8903C18.5896 75.278 18.0173 74.636 17.4548 73.9941C17.1784 73.6681 16.9021 73.3422 16.6258 73.0064C16.4581 72.799 15.7574 71.8805 16.2508 72.5324C14.1192 69.6584 12.2936 66.5869 10.8923 63.2882C11.2278 64.0783 10.7541 62.9326 10.6752 62.7154C10.537 62.3598 10.4087 61.9944 10.2805 61.6388C9.96466 60.7599 9.68835 59.8611 9.43177 58.9624C8.92849 57.1945 8.54362 55.397 8.2673 53.5798C8.24757 53.4514 8.15875 52.7403 8.21796 53.2638C8.27717 53.7872 8.19823 53.0761 8.18836 52.9477C8.14888 52.5527 8.10941 52.1576 8.06994 51.7626C7.98112 50.7354 7.93178 49.7083 7.91204 48.6713C7.88244 46.8343 7.97125 44.9973 8.16862 43.1702C8.18836 42.9431 8.21796 42.7159 8.24757 42.4986C8.22783 42.6468 8.12915 43.3085 8.24757 42.548C8.31665 42.1036 8.38573 41.6591 8.46467 41.2147C8.62257 40.3357 8.81007 39.4666 9.0173 38.5975C9.44164 36.8296 9.9844 35.0914 10.6258 33.3927C10.6851 33.2347 11.1291 32.1088 10.9712 32.494C10.8133 32.8791 11.287 31.773 11.366 31.615C11.7508 30.7755 12.1653 29.9459 12.5995 29.136C13.4186 27.6151 14.3265 26.1435 15.3133 24.7213C15.56 24.3658 15.8166 24.0201 16.0732 23.6744C16.5074 23.0819 16.1324 23.5954 16.0436 23.7041C16.1719 23.5362 16.31 23.3683 16.4482 23.2004C17.0205 22.4893 17.6126 21.7979 18.2245 21.1165C19.4186 19.8029 20.6916 18.5684 22.0238 17.403C22.31 17.1561 22.5962 16.9191 22.8824 16.6722C23.0106 16.5635 23.9481 15.8327 23.6225 16.0796C23.2968 16.3265 24.2541 15.6154 24.3922 15.5265C24.787 15.2401 25.1817 14.9636 25.5863 14.6969C27.0665 13.7093 28.6159 12.8105 30.2047 12.0007C30.9349 11.6353 31.6751 11.2896 32.4152 10.9637C33.0961 10.6575 32.504 10.9242 32.3757 10.9834C32.583 10.9044 32.7803 10.8155 32.9876 10.7365C33.4415 10.5587 33.9053 10.381 34.3691 10.2229C36.0862 9.61062 37.8428 9.1168 39.6191 8.72175C40.4974 8.5341 41.3757 8.36621 42.254 8.22794C42.4809 8.18843 42.698 8.1588 42.925 8.12918C42.8757 8.12918 42.2441 8.20819 42.7178 8.15881C43.2211 8.10942 43.7342 8.05017 44.2375 8.00079C46.1618 7.83289 48.096 7.80326 50.0302 7.88227C50.9875 7.92178 51.9546 8.00078 52.9118 8.10942C53.0894 8.12918 53.2671 8.14893 53.4447 8.16868C52.6848 8.08967 53.3065 8.14893 53.4546 8.16868C54.0368 8.25757 54.619 8.35633 55.2013 8.46497C57.0368 8.81064 58.8526 9.27482 60.6387 9.85752C61.517 10.1439 62.3854 10.46 63.244 10.8056C63.4611 10.8945 63.6683 10.9735 63.8854 11.0624C63.7374 11.0032 63.2045 10.7563 63.8854 11.0723C64.3591 11.2896 64.8229 11.497 65.2867 11.7241C66.9841 12.5537 68.6222 13.4821 70.1913 14.5191C70.9018 14.9932 71.6025 15.4771 72.2834 15.9907C72.3722 16.0598 72.9446 16.4944 72.5597 16.1981C72.1749 15.9018 72.7472 16.3462 72.8262 16.4154C73.2209 16.7314 73.6156 17.0672 74.0005 17.3931C75.3722 18.5783 76.6748 19.8523 77.8886 21.2054C78.5005 21.877 79.0827 22.5782 79.6551 23.2794C80.1288 23.8621 79.7538 23.4078 79.665 23.2794C79.8031 23.4572 79.9413 23.6448 80.0695 23.8226C80.3755 24.2374 80.6715 24.6522 80.9577 25.0769C82.0235 26.6274 82.9807 28.257 83.8393 29.936C84.2537 30.7557 84.6386 31.5853 85.0136 32.4248C84.7077 31.7532 85.1222 32.7014 85.211 32.9186C85.3985 33.4026 85.5761 33.8964 85.7537 34.3803C86.4445 36.3259 88.4774 37.8271 90.609 37.1358C92.5234 36.5136 94.1024 34.3606 93.3622 32.2767C87.6485 16.3265 73.7439 3.8725 56.8986 0.820732C40.0533 -2.23104 23.6126 3.33918 12.4811 15.6747C1.34958 28.0101 -2.75566 45.4615 1.8726 61.4018C6.35284 76.8187 18.6192 89.2134 33.9349 93.9343C51.0566 99.2082 70.3295 94.1318 82.6748 81.1544C84.2439 79.505 85.6748 77.7174 87.0169 75.8804C88.2406 74.2113 87.3524 71.4065 85.5958 70.4781C83.5432 69.3917 81.5005 70.1127 80.1978 71.9003L80.2077 71.8805Z" fill="#FF6B35" />
  <path d="M68.267 80.4136L80.9084 93.0651L82.7045 94.8626C84.165 96.3243 86.8492 96.433 88.2899 94.8626C89.7307 93.2923 89.8492 90.8331 88.2899 89.2727L75.6486 76.6211L73.8525 74.8237C72.392 73.362 69.7078 73.2533 68.267 74.8237C66.8263 76.394 66.7078 78.8532 68.267 80.4136Z" fill="#FF6B35" />
</svg>

<?xml version="1.0" encoding="UTF-8"?><svg xmlns="http://www.w3.org/2000/svg" viewBox="0 0 173 95.99"><defs><style>.d{fill:#22a1ee;}.e{fill:#ff6b35;}</style></defs><g id="a"/><g id="b"><g id="c"><path class="d" d="M32.37,60.63c2.2,0,3.78-.4,4.74-1.19,.96-.79,1.44-1.74,1.44-2.84,0-1.02-.38-1.85-1.13-2.48-.75-.63-1.87-1.17-3.34-1.62l-3.25-1.04c-2.2-.73-4.14-1.55-5.84-2.44-1.69-.9-3-2.05-3.92-3.49-.92-1.42-1.37-3.24-1.37-5.43,0-3.38,1.28-6.06,3.85-8.07,2.57-2,6.14-2.99,10.71-2.99,2.33,0,4.39,.23,6.21,.67,1.82,.45,3.24,1.11,4.28,1.99,1.04,.88,1.56,1.95,1.56,3.21,0,.94-.22,1.74-.64,2.41-.42,.67-.97,1.25-1.62,1.74-.94-.65-2.18-1.21-3.73-1.68-1.55-.46-3.27-.7-5.14-.7s-3.42,.32-4.4,.95c-.98,.63-1.47,1.45-1.47,2.48,0,.82,.33,1.48,.98,1.99,.65,.51,1.63,.97,2.94,1.37l3.37,1.04c3.71,1.15,6.56,2.66,8.57,4.55,1.99,1.9,3,4.42,3,7.6,0,3.42-1.32,6.2-3.98,8.34-2.65,2.14-6.48,3.21-11.5,3.21-2.49,0-4.71-.27-6.67-.79-1.96-.52-3.51-1.3-4.68-2.32-1.16-1.02-1.75-2.2-1.75-3.55,0-1.06,.32-1.97,.95-2.72s1.33-1.31,2.11-1.68c1.11,.9,2.48,1.7,4.12,2.41,1.65,.71,3.51,1.07,5.6,1.07h0Z"/><path class="d" d="M65.07,39.34l.05,5.6h-14.21c-.22-.28-.39-.66-.53-1.15-.14-.48-.21-1.01-.21-1.56,0-1.01,.22-1.75,.67-2.2,.44-.45,1.04-.69,1.77-.69h12.46Zm-6.85,4.37h7.04v23.43c-.31,.09-.77,.18-1.38,.26-.61,.08-1.24,.12-1.88,.12-1.38,0-2.35-.25-2.92-.73-.57-.49-.85-1.34-.85-2.57v-20.5Zm.37,1.24l-.05-5.6h14.21c.19,.28,.36,.66,.5,1.15,.16,.49,.23,1.01,.23,1.56,0,.98-.23,1.71-.67,2.18-.44,.47-1.05,.71-1.82,.71h-12.4Z"/><path class="e" d="M84.61,55.46h-7.04v-16.22c.34-.06,.81-.14,1.42-.23,.61-.09,1.22-.14,1.84-.14,1.32,0,2.28,.23,2.87,.69,.6,.45,.9,1.33,.9,2.62v13.27h0Zm5.01,12.49c-2.52,0-4.67-.45-6.46-1.35-1.8-.91-3.17-2.16-4.13-3.79-.97-1.62-1.45-3.52-1.45-5.7v-3.03h7.04v2.84c0,1.69,.46,2.99,1.4,3.93,.94,.94,2.14,1.4,3.61,1.4s2.67-.46,3.61-1.4c.94-.94,1.4-2.24,1.4-3.93v-2.84h7.04v3.03c0,2.17-.47,4.07-1.42,5.7-.95,1.62-2.33,2.88-4.14,3.79-1.81,.9-3.97,1.35-6.48,1.35h0Zm12.05-12.4h-7.04v-16.31c.34-.06,.82-.14,1.45-.23,.62-.09,1.23-.14,1.82-.14,1.32,0,2.28,.23,2.87,.69,.6,.45,.9,1.33,.9,2.62v13.36Z"/><path class="d" d="M131.53,61.33c-1.27,2.17-3.05,3.8-5.34,4.89-2.28,1.09-4.95,1.63-8.02,1.63-1.01,0-2.25-.07-3.72-.21-1.47-.14-2.8-.42-4-.85-1.6-.58-2.39-1.61-2.39-3.08v-21.95c0-.61,.17-1.08,.5-1.4,.34-.33,.78-.59,1.33-.8,1.22-.4,2.55-.66,3.96-.78,1.41-.12,2.69-.19,3.86-.19,3.16,0,5.91,.52,8.25,1.58,2.35,1.06,4.17,2.66,5.5,4.8,1.32,2.14,1.97,4.85,1.97,8.13s-.64,6.04-1.9,8.22v.02Zm-6.35-13.14c-.69-1.31-1.64-2.3-2.85-2.96-1.21-.66-2.61-.99-4.2-.99-.55,0-1.09,.02-1.59,.07s-1.02,.1-1.54,.16v17.4c.46,.09,.98,.16,1.56,.21,.58,.05,1.13,.07,1.66,.07,2.42,0,4.36-.75,5.81-2.25,1.45-1.5,2.18-3.72,2.18-6.66,0-2.05-.34-3.73-1.04-5.06h.01Z"/><path class="e" d="M145.54,56.56h-6.99v-17.31c.3-.06,.77-.14,1.4-.23,.63-.09,1.25-.14,1.86-.14,1.31,0,2.27,.23,2.85,.69,.58,.45,.88,1.33,.88,2.62v14.38h-.01Zm-6.99-8.83h6.99v19.38c-.28,.09-.72,.18-1.33,.26s-1.24,.12-1.88,.12c-1.38,0-2.35-.25-2.92-.73-.57-.49-.85-1.34-.85-2.57v-16.44h0Z"/><path class="e" d="M152.35,59.5l16.46-20.3h2.11c1.16,.95,1.75,2.2,1.75,3.76,0,.7-.16,1.38-.46,2.02-.31,.64-.7,1.27-1.19,1.89l-16.37,20.3h-2.49c-.46-.37-.84-.87-1.12-1.52-.29-.64-.43-1.36-.43-2.16,0-.67,.17-1.35,.5-2.04,.34-.69,.75-1.34,1.24-1.96h0Zm17.24-20.29l-2.58,5.74h-15.27c-.19-.31-.36-.7-.53-1.18-.17-.47-.26-1.01-.26-1.58,0-1.01,.23-1.76,.69-2.25,.46-.49,1.08-.73,1.88-.73h16.06Zm-16.51,27.97l3.27-5.74h15.87c.19,.31,.36,.7,.53,1.2,.17,.49,.26,1.03,.26,1.61,0,1.01-.23,1.76-.67,2.23-.44,.47-1.07,.71-1.86,.71h-17.39Z"/><path class="e" d="M80.21,71.88c-.09,.12-.95,1.23-.48,.65-.31,.38-.61,.76-.93,1.13-.66,.79-1.36,1.55-2.08,2.29-1.39,1.43-2.89,2.79-4.47,4.01,.55-.42-.36,.26-.51,.37-.39,.29-.79,.56-1.19,.84-.86,.58-1.74,1.13-2.63,1.65-.85,.48-1.72,.95-2.6,1.38-.44,.22-.89,.42-1.33,.62-.23,.1-.45,.2-.67,.3,.38-.16,.19-.08-.08,.03-1.91,.74-3.86,1.38-5.85,1.87-.98,.24-1.96,.44-2.96,.61-.25,.04-.5,.08-.75,.12-.1,.02-.89,.12-.42,.06,.42-.05-.21,.02-.24,.02-.38,.04-.76,.08-1.14,.12-1.98,.18-3.98,.22-5.96,.12-.91-.04-1.82-.11-2.72-.21-.23-.02-.45-.05-.67-.08,.15,.02,.81,.12,.05,0-.5-.08-1-.16-1.49-.25-1.8-.33-3.57-.77-5.32-1.32-.78-.25-1.56-.52-2.33-.81-.16-.06-1.28-.5-.9-.35,.47,.19-.17-.07-.28-.12-.25-.11-.49-.22-.74-.34-1.62-.75-3.2-1.6-4.72-2.55-.69-.42-1.36-.87-2.02-1.33-.36-.25-.7-.5-1.05-.76-.59-.43-.08-.06,.03,.03-.22-.17-.42-.34-.63-.5-1.38-1.12-2.68-2.31-3.92-3.59-.6-.61-1.17-1.25-1.74-1.9-.28-.33-.55-.65-.83-.99-.17-.21-.87-1.13-.38-.47-2.13-2.87-3.96-5.95-5.36-9.24,.34,.79-.14-.36-.22-.57-.14-.36-.27-.72-.39-1.08-.32-.88-.59-1.78-.85-2.68-.5-1.77-.89-3.57-1.16-5.38-.02-.13-.11-.84-.05-.32,.06,.52-.02-.19-.03-.32l-.12-1.19c-.09-1.03-.14-2.05-.16-3.09-.03-1.84,.06-3.67,.26-5.5,.02-.23,.05-.45,.08-.67-.02,.15-.12,.81,0,.05,.07-.44,.14-.89,.22-1.33,.16-.88,.35-1.75,.55-2.62,.42-1.77,.97-3.51,1.61-5.2,.06-.16,.5-1.28,.35-.9-.16,.39,.32-.72,.39-.88,.38-.84,.8-1.67,1.23-2.48,.82-1.52,1.73-2.99,2.71-4.41,.25-.36,.5-.7,.76-1.05,.43-.59,.06-.08-.03,.03,.13-.17,.27-.34,.4-.5,.57-.71,1.16-1.4,1.78-2.08,1.19-1.31,2.47-2.55,3.8-3.71,.29-.25,.57-.48,.86-.73,.13-.11,1.07-.84,.74-.59-.33,.25,.63-.46,.77-.55,.39-.29,.79-.56,1.19-.83,1.48-.99,3.03-1.89,4.62-2.7,.73-.37,1.47-.71,2.21-1.04,.68-.31,.09-.04-.04,.02,.21-.08,.4-.17,.61-.25,.45-.18,.92-.36,1.38-.51,1.72-.61,3.47-1.11,5.25-1.5,.88-.19,1.76-.36,2.63-.49,.23-.04,.44-.07,.67-.1-.05,0-.68,.08-.21,.03,.5-.05,1.02-.11,1.52-.16,1.92-.17,3.86-.2,5.79-.12,.96,.04,1.92,.12,2.88,.23l.53,.06c-.76-.08-.14-.02,0,0,.58,.09,1.16,.19,1.75,.3,1.84,.35,3.65,.81,5.44,1.39,.88,.29,1.75,.6,2.61,.95,.22,.09,.42,.17,.64,.26-.15-.06-.68-.31,0,0,.47,.22,.94,.42,1.4,.65,1.7,.83,3.34,1.76,4.9,2.8,.71,.47,1.41,.96,2.09,1.47,.09,.07,.66,.5,.28,.21-.38-.3,.19,.15,.27,.22,.39,.32,.79,.65,1.17,.98,1.37,1.19,2.67,2.46,3.89,3.81,.61,.67,1.19,1.37,1.77,2.07,.47,.58,.1,.13,0,0,.14,.18,.28,.37,.4,.54,.31,.41,.6,.83,.89,1.25,1.07,1.55,2.02,3.18,2.88,4.86,.41,.82,.8,1.65,1.17,2.49-.31-.67,.11,.28,.2,.49,.19,.48,.37,.98,.54,1.46,.69,1.95,2.72,3.45,4.86,2.76,1.91-.62,3.49-2.78,2.75-4.86C87.65,16.33,73.74,3.87,56.9,.82,40.05-2.23,23.61,3.34,12.48,15.67,1.35,28.01-2.76,45.46,1.87,61.4c4.48,15.42,16.75,27.81,32.06,32.53,17.12,5.27,36.39,.2,48.74-12.78,1.57-1.65,3-3.44,4.34-5.27,1.22-1.67,.34-4.47-1.42-5.4-2.05-1.09-4.1-.37-5.4,1.42v-.02Z"/><path class="e" d="M88.54,94.39c.23,.76-.48,1.47-1.24,1.24l-17.79-5.29c-.73-.22-.96-1.13-.42-1.67l12.5-12.5c.54-.54,1.45-.3,1.67,.42l5.29,17.79Z"/></g></g></svg>
